build/category/MultibonusOutline.svg

<svg xmlns="http://www.w3.org/2000/svg" fill="none" viewBox="0 0 24 24" focusable="false"><path d="M0 0H24V24H0z"/><path fill="#74767B" fill-rule="evenodd" d="M6.89847 6.34544C6.61497 5.83739 6.50393 5.2263 6.63701 4.60066L6.65495 4.51632C6.83157 3.68603 7.43959 3.01405 8.24814 2.75555C9.70254 2.29057 11.2068 2.88308 11.9999 4.05244C12.793 2.88308 14.2972 2.29057 15.7516 2.75555C16.5602 3.01405 17.1682 3.68603 17.3448 4.51632L17.3627 4.60066C17.4958 5.2263 17.3848 5.83738 17.1013 6.34543C18.7113 6.39884 20 7.7208 20 9.34375L20 17C20 18.6569 18.6569 20 17 20L7 20C5.34315 20 4 18.6569 4 17L4 9.34375C4 7.72088 5.28862 6.39897 6.89847 6.34544ZM12.7502 5.63958L12.6558 6.33615L12.656 6.33744L14.904 6.33744C15.676 6.33744 16.2518 5.62624 16.0912 4.87114L16.0733 4.7868C15.9937 4.41286 15.7199 4.11023 15.3557 3.99381C14.1644 3.61294 12.9181 4.40018 12.7502 5.63958ZM11.2496 5.63958L11.3439 6.33615L11.3438 6.33744L9.09577 6.33744C8.32378 6.33744 7.74794 5.62624 7.90856 4.87114L7.9265 4.7868C8.00605 4.41286 8.27988 4.11023 8.64402 3.99381C9.83533 3.61294 11.0817 4.40018 11.2496 5.63958ZM5.3 9.34375C5.3 8.40487 6.06112 7.64375 7 7.64375L17 7.64375C17.9389 7.64375 18.7 8.40487 18.7 9.34375L18.7 17C18.7 17.9389 17.9389 18.7 17 18.7L7 18.7C6.06112 18.7 5.3 17.9389 5.3 17L5.3 9.34375ZM9.95959 10.0404C9.7737 9.85451 9.49412 9.7989 9.25123 9.89951C9.00834 10.0001 8.84998 10.2371 8.84998 10.5L8.84998 15.5C8.84998 15.859 9.14099 16.15 9.49998 16.15C9.85896 16.15 10.15 15.859 10.15 15.5L10.15 12.0693L11.5404 13.4597C11.7942 13.7135 12.2058 13.7135 12.4596 13.4597L13.85 12.0693L13.85 15.5C13.85 15.859 14.141 16.15 14.5 16.15C14.859 16.15 15.15 15.859 15.15 15.5L15.15 10.5C15.15 10.2371 14.9916 10.0001 14.7487 9.89951C14.5058 9.7989 14.2263 9.85451 14.0404 10.0404L12 12.0808L9.95959 10.0404Z"/></svg>

<svg xmlns="http://www.w3.org/2000/svg" fill="none" viewBox="0 0 24 24" focusable="false"><path fill="#74767B" fill-rule="evenodd" d="M6.89 6.34c-.28-.51-.39-1.12-.26-1.74l.02-.09c.18-.83.78-1.5 1.59-1.76 1.46-.46 2.96.13 3.76 1.3a3.31 3.31 0 0 1 3.75-1.3c.81.26 1.41.93 1.59 1.76l.02.09c.13.62.02 1.23-.26 1.74 1.61.05 2.9 1.38 2.9 3V17c0 1.65-1.35 3-3 3H7c-1.66 0-3-1.35-3-3V9.34c0-1.62 1.28-2.95 2.89-3m5.86-.71-.1.7h2.25c.77 0 1.35-.71 1.19-1.46l-.02-.09c-.08-.37-.36-.67-.72-.79-1.19-.38-2.44.41-2.6 1.64m-1.51 0 .1.7H9.09c-.77 0-1.35-.71-1.19-1.46l.02-.09c.08-.37.35-.67.72-.79 1.19-.38 2.44.41 2.6 1.64M5.29 9.34c0-.94.77-1.7 1.71-1.7h10c.93 0 1.7.76 1.7 1.7V17c0 .93-.77 1.7-1.7 1.7H7c-.94 0-1.71-.77-1.71-1.7zm3.96.55c.24-.1.52-.04.7.15L12 12.08l2.04-2.04c.18-.19.46-.25.7-.15.25.11.4.34.4.61v5c0 .35-.29.65-.64.65-.36 0-.65-.3-.65-.65v-3.44l-1.4 1.39c-.25.26-.66.26-.91 0l-1.4-1.39v3.44c0 .35-.29.65-.64.65-.36 0-.65-.3-.65-.65v-5c0-.27.15-.5.4-.61"/></svg>
